X: 17
T: Cape Breton Hornpipe
T: Hornpipe, G
L: 1/16
M: C
K: G
|: D4| G4G2c2 B2G2G4| B2G2B2d2 g4g1f1g2| e2c2c2e2 d2B2G2B2| c2B2A2G2 A4D4| 
G4G2c2 B2G2G4| B2G2B2d2 g4g1f1g2| e2c2c2e2 d2B2G2B2| c2A2F2D2 G4:| 
|: g4| g4g1a1b2 e4e2f2| g4g1a1b2 e4e1f1g2| f4f1g1a2 d4e2f2| g2f2g2b2 a2f2d4| 
g4g1a1b2 e4e2f2| g4g1a1b2 e4e1f1g2| f4f2a2 d4e2f2| g4b2a2 g4:| 
|: B2c2| d4b4 c4a4| B4g2f2 g2d2B2G2| F4e4 e2d2c2A2| F4e4 e2d2B2c2| 
d4b4 c4a4| B4g2f2 g2d2B2G2| F4e4 e2d2c2A2| G4B4 G4:| 
D: Mike MacDougall, Tape for Fr. Hector (3rd tune in First Medley)
